src/assets/images/social/facebook.svg

<svg width="64" height="64" viewBox="0 0 64 64" fill="none" xmlns="http://www.w3.org/2000/svg"><path d="M37.1592 63.5835C36.8926 63.627 36.625 63.667 36.3564 63.7036 36.625 63.667 36.8926 63.627 37.1592 63.5835z" fill="#000"/><path d="M37.7993 63.4741C37.6719 63.4976 37.5444 63.519 37.417 63.541 37.5444 63.519 37.6719 63.4976 37.7993 63.4741z" fill="#000"/><path d="M35.6421 63.7925C35.3301 63.8276 35.0161 63.8589 34.7012 63.8853 35.0161 63.8589 35.3301 63.8276 35.6421 63.7925z" fill="#000"/><path d="M36.2568 63.7173C36.1069 63.7373 35.9561 63.7559 35.8057 63.7734 35.9561 63.7559 36.1069 63.7373 36.2568 63.7173z" fill="#000"/><path d="M38.6709 63.3013C38.5586 63.3252 38.4458 63.3491 38.333 63.3721 38.4458 63.3491 38.5586 63.3252 38.6709 63.3013z" fill="#000"/><path d="M40.833 62.7642C40.7422 62.79 40.6514 62.8145 40.5605 62.8398 40.6514 62.8145 40.7422 62.79 40.833 62.7642z" fill="#000"/><path d="M40.1787 62.9429C40.0801 62.9687 39.981 62.9951 39.8818 63.02 39.981 62.9951 40.0801 62.9692 40.1787 62.9429z" fill="#000"/><path d="M39.3232 63.1567C39.2187 63.1812 39.1133 63.2041 39.0078 63.2275 39.1133 63.2041 39.2187 63.1812 39.3232 63.1567z" fill="#000"/><path d="M34.6914 63.8862C34.5229 63.9004 34.3545 63.9131 34.1855 63.9243 34.3545 63.9131 34.5229 63.9004 34.6914 63.8862z" fill="#000"/><path d="M64 32C64 14.3296 49.6704.0 32 0 14.3296.0.0 14.3296.0 32 0 49.6704 14.3296 64 32 64 32.188 64 32.375 63.9961 32.5625 63.9927V39.082h-6.875V31.0698h6.875V25.1738C32.5625 18.3359 36.7368 14.6143 42.8364 14.6143 45.7573 14.6143 48.2681 14.832 49 14.9292V22.0757H44.7939C41.4756 22.0757 40.833 23.6528 40.833 25.9668V31.0698H48.7676L47.7334 39.082H40.833V62.7637C54.2085 58.9292 64 46.6064 64 32z" fill="#425893"/><path d="M34.1143 63.9287C33.7813 63.9502 33.4468 63.9673 33.1113 63.9785 33.4468 63.9673 33.7813 63.9502 34.1143 63.9287z" fill="#000"/><path d="M33.0938 63.9795C32.917 63.9854 32.7397 63.9897 32.5625 63.9927 32.7397 63.9897 32.917 63.9854 33.0938 63.9795z" fill="#000"/></svg>

<svg width="64" height="64" fill="none" xmlns="http://www.w3.org/2000/svg"><path d="M37.16 63.584zM37.8 63.474c-.128.024-.256.045-.383.067.127-.022.255-.043.382-.067zM35.642 63.792zM36.257 63.717zM38.67 63.301zM40.833 62.764l-.273.076.273-.076zM40.179 62.943l-.297.077c.099-.025.198-.05.297-.077zM39.323 63.157l-.315.07.315-.07zM34.691 63.886z" fill="#000"/><path d="M64 32C64 14.33 49.67 0 32 0S0 14.33 0 32s14.33 32 32 32c.188 0 .375-.004.563-.007V39.082h-6.876V31.07h6.875v-5.896c0-6.838 4.175-10.56 10.274-10.56 2.921 0 5.432.218 6.164.315v7.147h-4.206c-3.318 0-3.961 1.577-3.961 3.89v5.104h7.935l-1.035 8.012h-6.9v23.682C54.209 58.929 64 46.606 64 32z" fill="#425893"/><path d="M34.114 63.929zM33.094 63.98z" fill="#000"/></svg>
